X: 226
T: diao bing
%%abc-version 2.0
%%abcx-abcm2ps-target-version 5.9.1 (29 Sep 2008)
%%abc-creator hum2abc beta
%%abcx-conversion-date 2013/10/02 07:52:29
%%abc-edited-by Helmut Schaffrath
%%humdrum-veritas 3077976365
%%humdrum-veritas-data 2560157486
%%continueall 1
%%barnumbers 0
L: 1/8
M: 2/4
K: C
e e e d [I:setbarnb 1]| 
e GA2 | 
e e e d | 
e GA2 | 
e e e e | 
c e d d | 
e> GA2 | 
c c E E | 
D> CD2 |]  



